X: 1
T: Pick Of The Litter
M: 4/4
L: 1/8
R: reel
K: Gmaj
~B3c dg~g2|bgag bgag|BABc dg~g2|fdcA BdcA|
~B3c dg~g2|bgab g2 ga|bgaf gbag|1fdcA BdcA:|2fdcA BG~G2||
B2AG A=F~F2|=FGAB cABA|GABd gdeg|fdcA BdcA|
B2AG A=F~F2|=FGAB c2BA|GABd gdeg|fdcA ~G3z|
B2AG A=F~F2|=FGAB cABA|GABd gdeg|fdcA BdcA|
B2AG A=F~F2|=FGAB c2BA|G3B d3g|fdcA ~G3z||
